packages/core/src/svgs/tokens/mono/GAME.svg

<svg width="24" height="24" viewBox="0 0 24 24" fill="none" xmlns="http://www.w3.org/2000/svg">
<path fill-rule="evenodd" clip-rule="evenodd" d="M15.7653 21.2666C14.6033 21.74 13.332 21.9999 12 21.9999C7.83799 21.9999 4.27 19.458 2.76399 15.8413C2.82066 13.4506 4.90199 9.67465 9.20806 8.42532C8.62168 8.89391 8.14846 9.4886 7.82345 10.1651C7.49844 10.8416 7.33002 11.5827 7.33066 12.3332C7.33066 12.6666 7.36333 12.992 7.42533 13.3067C7.54799 14.7412 8.08532 16.5687 9.36066 18.1213C10.6566 19.6986 12.6941 20.9666 15.7653 21.2666ZM16.992 20.6666C13.4093 20.6194 11.1999 19.3093 9.87601 17.698C9.40686 17.1243 9.02155 16.4869 8.732 15.8046C9.32364 16.4177 10.0622 16.8695 10.8775 17.117C11.6927 17.3647 12.5576 17.4 13.3903 17.2195C14.2232 17.0391 14.996 16.649 15.6356 16.0862C16.2752 15.5232 16.7604 14.8063 17.0452 14.0033C17.76 14.01 18.7494 14.122 19.5466 14.5067C19.954 14.7033 20.2973 14.9646 20.5333 15.3067C20.7573 15.6293 20.898 16.0426 20.8899 16.5827C20.0078 18.2882 18.6546 19.7059 16.992 20.6666ZM21.3753 15.4867C21.7898 14.371 22.0014 13.1902 22 12C22 10.8007 20.8094 9.99805 19.61 9.99805H16.33L16.3306 9.99991H12.8359C12.0073 9.99991 11.46 10.3732 11.46 11.2027C11.46 12.5826 12.4553 13.3333 13.836 13.3333H17.23L17.2286 13.34C17.9759 13.3633 18.9819 13.494 19.8353 13.9059C20.3159 14.138 20.7619 14.4659 21.0819 14.9267C21.1993 15.0973 21.2994 15.284 21.3753 15.4867ZM11.9113 7.34665C11.9841 7.34063 12.0571 7.33618 12.13 7.33332H16.6666C18.0811 7.33332 19.4377 6.77142 20.4379 5.77124C21.4381 4.77103 22 3.41448 22 2H12C6.47666 2 2 6.47732 2 12C2 12.8433 2.104 13.6626 2.30067 14.4454C3.102 11.3473 6.26466 7.49732 11.9113 7.34665ZM13.9973 11C13.9973 10.9116 14.0325 10.8268 14.095 10.7643C14.1575 10.7018 14.2423 10.6666 14.3307 10.6666C14.419 10.6666 14.5038 10.7018 14.5663 10.7643C14.6288 10.8268 14.664 10.9116 14.664 11V11.3333H14.9974C15.0857 11.3333 15.1705 11.3685 15.233 11.431C15.2956 11.4934 15.3307 11.5782 15.3307 11.6667C15.3307 11.755 15.2956 11.8398 15.233 11.9024C15.1705 11.9649 15.0857 12 14.9974 12H14.664V12.3332C14.664 12.4218 14.6288 12.5065 14.5663 12.5691C14.5038 12.6316 14.419 12.6666 14.3307 12.6666C14.2423 12.6666 14.1575 12.6316 14.095 12.5691C14.0325 12.5065 13.9973 12.4218 13.9973 12.3332V12H13.6639C13.5756 12 13.4908 11.9649 13.4283 11.9024C13.3657 11.8398 13.3306 11.755 13.3306 11.6667C13.3306 11.5782 13.3657 11.4934 13.4283 11.431C13.4908 11.3685 13.5756 11.3333 13.6639 11.3333H13.9973V11ZM19.3307 11C19.3307 11.0883 19.2955 11.1731 19.233 11.2356C19.1704 11.2982 19.0857 11.3333 18.9973 11.3333C18.909 11.3333 18.8242 11.2982 18.7616 11.2356C18.6991 11.1731 18.664 11.0883 18.664 11C18.664 10.9116 18.6991 10.8268 18.7616 10.7643C18.8242 10.7018 18.909 10.6666 18.9973 10.6666C19.0857 10.6666 19.1704 10.7018 19.233 10.7643C19.2955 10.8268 19.3307 10.9116 19.3307 11ZM18.664 11.6667C18.664 11.755 18.6288 11.8398 18.5664 11.9024C18.5039 11.9649 18.4191 12 18.3306 12C18.2422 12 18.1575 11.9649 18.0949 11.9024C18.0324 11.8398 17.9972 11.755 17.9972 11.6667C17.9972 11.5782 18.0324 11.4934 18.0949 11.431C18.1575 11.3685 18.2422 11.3333 18.3306 11.3333C18.4191 11.3333 18.5039 11.3685 18.5664 11.431C18.6288 11.4934 18.664 11.5782 18.664 11.6667ZM19.664 12C19.7524 12 19.8372 11.9649 19.8997 11.9024C19.9622 11.8398 19.9974 11.755 19.9974 11.6667C19.9974 11.5782 19.9622 11.4934 19.8997 11.431C19.8372 11.3685 19.7524 11.3333 19.664 11.3333C19.5755 11.3333 19.4907 11.3685 19.4282 11.431C19.3658 11.4934 19.3307 11.5782 19.3307 11.6667C19.3307 11.755 19.3658 11.8398 19.4282 11.9024C19.4907 11.9649 19.5755 12 19.664 12ZM19.3307 12.3332C19.3307 12.4218 19.2955 12.5065 19.233 12.5691C19.1704 12.6316 19.0857 12.6666 18.9973 12.6666C18.909 12.6666 18.8242 12.6316 18.7616 12.5691C18.6991 12.5065 18.664 12.4218 18.664 12.3332C18.664 12.2449 18.6991 12.1601 18.7616 12.0976C18.8242 12.035 18.909 12 18.9973 12C19.0857 12 19.1704 12.035 19.233 12.0976C19.2955 12.1601 19.3307 12.2449 19.3307 12.3332Z" fill="white"/>
</svg>

<svg xmlns="http://www.w3.org/2000/svg" width="24" height="24" fill="none" viewBox="0 0 24 24">
    <path fill="#fff" fill-rule="evenodd" d="M15.765 21.267A10 10 0 0 1 12 22c-4.162 0-7.73-2.542-9.236-6.159.057-2.39 2.138-6.166 6.444-7.416a5 5 0 0 0-1.783 4.882c.123 1.434.66 3.262 1.936 4.814 1.296 1.578 3.333 2.846 6.404 3.146m1.227-.6c-3.583-.048-5.792-1.358-7.116-2.969a7.8 7.8 0 0 1-1.144-1.893 5 5 0 0 0 8.313-1.802c.715.007 1.704.119 2.502.504.407.196.75.458.986.8.224.322.365.736.357 1.276a10.05 10.05 0 0 1-3.898 4.084m4.383-5.18A10 10 0 0 0 22 12c0-1.2-1.19-2.002-2.39-2.002h-3.28V10h-3.494c-.829 0-1.376.373-1.376 1.203 0 1.38.995 2.13 2.376 2.13h3.394l-.001.007c.747.023 1.753.154 2.606.566.48.232.927.56 1.247 1.02q.177.257.293.56m-9.464-8.14.219-.014h4.537A5.334 5.334 0 0 0 22 2H12C6.477 2 2 6.477 2 12c0 .843.104 1.663.3 2.445.802-3.098 3.965-6.948 9.611-7.098M13.997 11a.333.333 0 0 1 .667 0v.333h.333a.333.333 0 0 1 0 .667h-.333v.333a.334.334 0 0 1-.667 0V12h-.333a.333.333 0 0 1 0-.667h.333zm5.334 0a.333.333 0 1 1-.667 0 .333.333 0 0 1 .667 0m-.667.667a.334.334 0 1 1-.668 0 .334.334 0 0 1 .668 0m1 .333a.333.333 0 1 0 0-.667.333.333 0 0 0 0 .667m-.333.333a.334.334 0 1 1-.668 0 .334.334 0 0 1 .668 0" clip-rule="evenodd"/>
</svg>
